X: 10068
T: MIKE'S POLKA
C: Bob McQuillen 21 July 93
B: Bob's Note Book 10 #68
%R: polka, reel
Z: 2020 John Chambers <jc:trillian.mit.edu>
M: C
L: 1/8
K: G
Bc \
| d2g2 dcBc | d2g2 g2AB | c2A2 ABAG | F2d2 dcBc |\
| d2g2 dcBc | d2g2 g2AB | cdef geag | f2d2 d2  :|
|: ga \
| b2g2 dedc | B2G2 G2AG | F2D2 A2D2 | B2D2 c2dc |\
| B2d2 cedc | B2d2 gfed | cBAG FAdc | B2G2 G2  :|
%%begintext align
%% Mike Iselin lives over
%% in Nelson with his lovely wife, Alouette, and four nice
%% children (are you being nice today, Owen?!) They're a grand
%% bunch, and I always enjoy it when any one of them shows up
%% at the dances. Hope that happens again real soon, Mike!
%%endtext

%%sep 1 1 500

%%sep 1 1 500

